X:209
T:Brendan Tonra's
T:Andy McGann's
R:jig
C:Brendan Tonra
Z:id:hn-jig-209
M:6/8
K:D
~F3 AGE|EDB, A,B,D|~F3 ~G3|ABF AFE|
~F3 AGE|EDB, A,B,D|~F3 GFG|BAF D3:|
|:f2d dcd|edc Bcd|f2d dcd|ABF Ade|
f2d dcd|edc Bcd|~f3 gec|edc d3:|

